X:1
T:Lord MacDuff's
T:Lord MacDuff's
T:Lord McDuff's
T:Alexander Walker
C:Alexander Walker
L:1/8
M:4/4
K:A
V:1 treble 
V:1
 F | E<AA>c B>AF>A | E<CA>E (F/E/)D/C/ B,>F | E<AA>c B>AF>A | E<CA>C{C} B,2 A, :| e | %6
 e>Ac>A (3cde (3fga | e>Ac>A G<BG<E | e>Ac>A d>ef>g | a/g/f/e/{g} a>c f2 ef/g/ | a>Ag>A f>Ae>A | %11
 d>Bc>A B<EG<B | A>FE>D C>D E<f | e<Ae>c{c} B2 A || %14

